X:1
T:Which Side Are You On?
T:Thompson H. Jones, 1906
T:Which Side Are You On?
T:Public Domain
T:Public Domain
T:Public Domain
C:Thompson H. Jones, 1906
Z:Public Domain
%%score ( 1 2 ) ( 3 4 )
L:1/8
M:4/4
K:F
V:1 treble 
V:2 treble 
V:3 bass 
V:4 bass 
V:1
 C | [FA]>[FA] [FA]>[FG] F>[FG] [FA]>[FB] | [Fc]6 [Fc]2 | [Ec]>[EG] [EG]>[FA] [GB]>[Bd] [Ac]>[GB] | %4
w: 1.~I|the ar- mies gath- ’ring for the fray,|hosts are|be- ing mar- shaled once a- gain; The|
w: 2.~You|not be a care- less look- er on,|can- not|neu- tral be in this long strife; You|
w: 3.~Choose|be- tween the e- vil and the good,|tween the|path of hon- or and of shame; Be-|
w: 4.~Gird|thine ar- mor for the cause of right,|strives for|pu- ri- ty, and love and home; And|
 [FA]6 C2 | [FA]>[FA] [FA]>[FG] F>[FG] [FA]>[FB] | [Fc]6 [Fc]2 | %7
w: noise of|par- a- tion all the day, Is ring-|thro’ the|
w: must es-|the cause of right or wrong, You must|in- fluence|
w: tween the|which min- gle tears and blood, And those|lift the|
w: know that|with His e- ter- nal might Will give|strength the|
 [Fd]<[Fd] [FB]>[Fd] [Fc]>[FA] [EG]>[EA] | F6 ||"^Refrain" [Fc]2 | %10
w: vale and o’er the plain. * * *|||
w: give to death or life. Which side are|you|in|
w: fall- en in His name. * * *|||
w: foe to o- ver- come. * * *|||
 [Fd]2 [Fd]>[Fd] [FB]2 [Fd]>[Fd] | [Fc]4 .[FA].[Fc] z [FA] | [EG]2 [Ec][Ec] [F=B]>[Gf] [Ge]>[Fd] | %13
w: |||
w: this fight, sol- dier? Which side|now shall claim your|gal- lant deeds? Do you march with|
w: |||
w: |||
 (z2 GF E2) [FA]>[GB] | [Ac]2 [FA]>[FG] | F2 [EG]>[E^G] | [FA]>[FA] [FB]>[Fc] [Fd]2 [Fd]2 | %17
w: ||||
w: * * * the King|* the ban-|ner of the|Or fol- low where the prince|
w: ||||
w: ||||
 [Fc]<[Fc] [Fc]>[FA] [EG]>[EB] [EA]>[EG] | [CF]6 z |] %19
w: ||
w: of dark- ness leads? * * * *||
w: ||
w: ||
V:2
 C | x4 F3/2 x5/2 | x8 | x8 | x6 C2 | x4 F3/2 x5/2 | x8 | x8 | F6 || x2 | x8 | x8 | x8 | [Ec]6 x2 | %14
w: see|Their|||pre-|ing|||||||||
w: can-|You|||pouse|your|||on|||||’neath|
w: ye|Be-|||hands|which|||||||||
w: on|Which|||God|thee|||||||||
 x4 | F2 x2 | x8 | x8 | x7 |] %19
w: |||||
w: |right||||
w: |||||
w: |||||
V:3
 [F,A,] | [F,C]>[F,C] [F,C]>[F,B,] [F,A,]>[F,B,] [F,C]>[F,G,] | [F,A,]6 [F,A,]2 | %3
 [C,G,]>[C,C] [C,C]>[C,C] [C,C]>[C,C] [D,C]>[E,C] | [F,C]6 [F,A,]2 | %5
 [F,C]>[F,C] [F,C]>[F,B,] [F,A,]>[F,B,] [F,C]>[F,G,] | [F,A,]6 [F,A,]2 | %7
 [B,,B,]<[B,,B,] [B,,D]>[B,,B,] [C,A,]>[C,C] [C,B,]>[C,C] | [F,A,]6 || [F,A,]2 | %10
 [B,,B,]2 [B,,B,]>[B,,B,] [B,,D]2 [B,,B,]>[B,,B,] | [F,A,]4 .[F,C].[F,A,] z [F,C] | %12
 [G,C]2 [G,C][G,C] [G,D]>[G,D] [G,C]>[G,=B,] | (z2 B,A, G,2) [F,C]>[F,C] | [F,F]2 [F,C]>[F,B,] | %15
 [F,A,]2 [C,C]>[C,C] | [F,C]>[_E,C] [D,B,]>[C,A,] [B,,B,]2 [=B,,^G,]2 | %17
 [C,A,]<[C,A,] [C,A,]>[C,C] [C,B,]>[C,G,] [C,C]>[C,B,] | [F,A,]6 z |] %19
V:4
 x | x8 | x8 | x8 | x8 | x8 | x8 | x8 | x6 || x2 | x8 | x8 | x8 | [C,G,C]6 x2 | x4 | x4 | x8 | x8 | %18
 x7 |] %19

